X:51
T: Waltzes 1 - Rosza
T:Rosza
C:Undine Hornby
L:1/8
M:3/4
K:Emin
cBG|"Em"E2 EG Be | g2 ge BE | "Am"c2 AB cd | "B"Bc BA GF |
"Em"E2 EG Be | g2 ge Be |1 "Am"cB AB cd | "B"B3 c BG :|2 "Am"c2 AB cd | "B"B4 B2|
"C"c2 ef "Am"g2 | "Em"B2 ef g2 | "D"fg a2 gf | g2 f2 "Em"e2 |
"C"c2 ef "Am"g2 | "Em"B2 ef g2 | "D"fg a2 gf | "Em"e3 d cB |
"C"ce fg "Am"fe | "Em"Be fg fe | "D"fg a2 gf | g2 f2 "Em"e2 |
"C"ce fg fe | "Em"Be fg fe | "D"fg a2 gf | "Em"e3||
T:French Waltz
K:D
FG | "D"A2 d2 c2 | "D"A4 AB | "C/A"=c2 B2 G2 | "G"AB AG FG |
"D"A2 d2 c2 |"D"A4 AB | "C/A"=c2 B2 G2 | "G"A4 :|
FG | "D"A2 F2 D2 | "C"E3 D EF | "Em"G2 F2 D2 | "A"EF G2 FG |
"D"A2 F2 D2 | "C"E3 D EF | "Em"G2 F2 "A"E2 | "G"D4 :|
%%newpage

